X: 158
T:Tip Top Polka
M:4/4
L:1/8
Z:abc2nwc
F:http://members.aol.com/LewesArmsFolk/ABC/LwsFavABC6.abc 2001-11-15 17:1
F:48 UT
K:G
|:d2d2de dc|B2B2B2GA|B2B2B2d2|AG AB A2A2|
c2c2cd cB|A2A2A2G2|FG AB cd ef|g2g2g4:|
|:g2e2ed ef|g2d2d4|B2 (3BcB A2G2|e2d2d2ef|
g2e2ed ef|g2d2d4|cB AB cd ef|g2g2g4:|
